iphone/Maps/Images.xcassets/Interface/Search/Categories/fuel.imageset/fuel_light.svg

<svg height="28" viewBox="0 0 28 28" width="28" xmlns="http://www.w3.org/2000/svg"><g fill="none" opacity=".898664"><circle cx="14" cy="14" fill="#747e86" fill-rule="evenodd" r="14"/><path d="m17.846514 4.676c-.2889478.0456586-.5278773.24951065-.6184621.52766514-.0905848.2781545-.017519.58361209.1891288.79066819l2.0113333 2.01133334c.371.371.6335.8295.7688334 1.32766666h-.6743334c-1.2798333 0-2.3333333 1.05349997-2.3333333 2.33333337 0 1.2798333 1.0535 2.3333333 2.3333333 2.3333333h.776993v5.4448333c0 .4386667-.3383263.777-.776993.777-.207136.0031729-.4067361-.0776318-.5533304-.2240063s-.2276984-.3458532-.2248362-.5529937v-1.5563333c0-1.2786667-1.0535-2.3333333-2.3333334-2.3333333h-.7781666v-7.77700003c.0012429-.41294278-.1621679-.80934776-.4540543-1.10145318-.2918865-.29210542-.6881688-.45581348-1.1011124-.45488016h-6.22183335c-.4131455-.00124442-.80972842.1623263-1.10186773.45446561s-.45571002.68872223-.45447265 1.10186773v12.44366663c-.00123737.4131455.16233334.8097285.45447265 1.1018678s.68872223.45571 1.10186773.4544726h6.22183335c.4129436.0009263.8092259-.1627818 1.1011124-.4548872.2918864-.2921054.4552972-.6885104.4540543-1.1014532v-3.1103333h.7781666c.4386667 0 .7781667.3383333.7781667.777v1.5563333c0 1.2786667 1.0535 2.3333404 2.3333333 2.3333404 1.2786667 0 2.3333334-1.0546737 2.3333334-2.3333404v-9.3333333c0-1.20209323-.4775338-2.35494971-1.3276667-3.20483333l-2.0113333-2.0125c-.1761743-.17608071-.4259933-.25718514-.672-.21816667zm-9.21433331 3.10216667h4.66666671c.4316666 0 .7781666.3465.7781666.777v3.88966663h-6.22066665v-3.88966663c0-.4305.3465-.777.777-.777zm10.89083331 2.72183333c.6443322 0 1.1666667.5223345 1.1666667 1.1666667s-.5223345 1.1666666-1.1666667 1.1666666-1.1666666-.5223344-1.1666666-1.1666666.5223344-1.1666667 1.1666666-1.1666667z" fill="#fff"/></g></svg>

<?xml version="1.0" encoding="UTF-8"?>
<svg width="28px" height="28px" viewBox="0 0 28 28" version="1.1" xmlns="http://www.w3.org/2000/svg" xmlns:xlink="http://www.w3.org/1999/xlink">
    <title>fuel_light</title>
    <g id="fuel_light" stroke="none" fill="none" fill-rule="evenodd">
        <path d="M14,0 C21.7319865,0 28,6.2680135 28,14 C28,21.7319865 21.7319865,28 14,28 C6.2680135,28 0,21.7319865 0,14 C0,6.2680135 6.2680135,0 14,0 Z M17.8453474,4.676 C17.5575662,4.7216586 17.3186367,4.92551065 17.2280519,5.20366514 C17.1374671,5.48181964 17.2105329,5.78727723 17.4171807,5.99433333 L19.428514,8.00566667 C19.799514,8.37666667 20.062014,8.83516667 20.1973474,9.33333333 L19.523014,9.33333333 C18.2431807,9.33333333 17.1896807,10.3868333 17.1896807,11.6666667 C17.1896807,12.9465 18.2431807,14 19.523014,14 L20.300007,14 L20.300007,19.4448333 C20.300007,19.8835 19.9616807,20.2218333 19.523014,20.2218333 C19.315878,20.2250062 19.1162779,20.1442015 18.9696836,19.997827 C18.8230893,19.8514525 18.7419852,19.6519738 18.7448474,19.4448333 L18.7448474,17.8885 C18.7448474,16.6098333 17.6913474,15.5551667 16.411514,15.5551667 L15.6333474,15.5551667 L15.6333474,7.77816667 C15.6345903,7.36522389 15.4711795,6.96881891 15.1792931,6.67671349 C14.8874066,6.38460807 14.4911243,6.22090001 14.0781807,6.22183333 L7.85634735,6.22183333 C7.44320185,6.22058891 7.04661893,6.38415963 6.75447962,6.67629894 C6.46234031,6.96843825 6.2987696,7.36502117 6.30000697,7.77816667 L6.30000697,20.2218333 C6.2987696,20.6349788 6.46234031,21.0315618 6.75447962,21.3237011 C7.04661893,21.6158404 7.44320185,21.7794111 7.85634735,21.7781737 L14.0781807,21.7781737 C14.4911243,21.7791 14.8874066,21.6153919 15.1792931,21.3232865 C15.4711795,21.0311811 15.6345903,20.6347761 15.6333474,20.2218333 L15.6333474,17.1115 L16.411514,17.1115 C16.8501807,17.1115 17.1896807,17.4498333 17.1896807,17.8885 L17.1896807,19.4448333 C17.1896807,20.7235 18.2431807,21.7781737 19.523014,21.7781737 C20.8016807,21.7781737 21.8563474,20.7235 21.8563474,19.4448333 L21.8563474,10.1115 C21.8563474,8.90940677 21.3788136,7.75655029 20.5286807,6.90666667 L18.5173474,4.89416667 C18.3411731,4.71808596 18.0913541,4.63698153 17.8453474,4.676 Z M19.523014,10.5 C20.1673462,10.5 20.6896807,11.0223345 20.6896807,11.6666667 C20.6896807,12.3109989 20.1673462,12.8333333 19.523014,12.8333333 C18.8786818,12.8333333 18.3563474,12.3109989 18.3563474,11.6666667 C18.3563474,11.0223345 18.8786818,10.5 19.523014,10.5 Z M13.2988474,7.77816667 C13.730514,7.77816667 14.077014,8.12466667 14.077014,8.55516667 L14.077014,12.4448333 L7.85634735,12.4448333 L7.85634735,8.55516667 C7.85634735,8.12466667 8.20284735,7.77816667 8.63334735,7.77816667 L13.2988474,7.77816667 Z" id="Shape" fill="#747E86"></path>
    </g>
</svg>
